client/src/assets/swirl-dark-bk.svg

<svg width="983" height="938" viewBox="0 0 983 938" fill="none" xmlns="http://www.w3.org/2000/svg">
<path fill-rule="evenodd" clip-rule="evenodd" d="M856.757 838.434C1038.61 632.241 1021.89 314.939 820.177 129.045C618.463 -56.8484 308.053 -39.7547 126.197 166.438C7.04949 302.119 -31.6212 494.423 26.9073 666.428C63.4876 759.375 131.422 838.434 216.08 886.51C402.116 992.277 650.863 931.381 753.287 738.008C841.08 573.481 788.822 354.469 624.734 265.795C488.864 192.079 308.053 238.018 238.028 380.109C181.59 493.355 219.215 643.993 332.091 698.479C417.794 740.145 530.67 710.231 569.341 620.489C595.47 558.524 573.521 477.329 512.903 454.894C496.18 448.484 472.142 448.484 455.419 454.894C413.613 471.988 396.891 517.927 398.981 547.841C414.658 610.874 431.381 592.712 435.561 618.352C389.575 624.762 347.769 593.78 331.046 561.729C314.324 529.679 309.098 496.56 317.459 462.373C330.001 407.886 369.717 368.357 413.613 350.195C457.51 332.033 506.632 330.965 550.528 348.058C678.036 396.134 720.888 548.909 670.72 665.36C604.876 818.135 423.02 868.348 284.015 799.973C110.519 715.573 55.1263 495.492 138.738 327.76C239.073 125.84 487.819 62.8074 676.991 164.301C898.563 283.957 967.543 573.481 851.531 791.426C834.809 822.408 814.951 851.254 793.003 876.894C774.19 899.33 754.332 918.56 732.384 936.722C778.371 910.013 820.177 875.826 855.712 836.297L856.757 838.434Z" fill="#272727"/>
</svg>

<?xml version="1.0" encoding="utf-8"?>
<!-- Generator: Adobe Illustrator 27.4.0, SVG Export Plug-In . SVG Version: 6.00 Build 0)  -->
<svg version="1.1" id="Layer_1" xmlns="http://www.w3.org/2000/svg" xmlns:xlink="http://www.w3.org/1999/xlink" x="0px" y="0px"
	 viewBox="0 0 983 938" style="enable-background:new 0 0 983 938;" xml:space="preserve">
<style type="text/css">
	.st0{fill-rule:evenodd;clip-rule:evenodd;fill:#212121;}
</style>
<path class="st0" d="M856.8,838.4c181.9-206.2,165.1-523.5-36.6-709.4s-512.1-168.8-694,37.4C7,302.1-31.6,494.4,26.9,666.4
	c36.6,92.9,104.5,172,189.2,220.1c186,105.8,434.8,44.9,537.2-148.5c87.8-164.5,35.5-383.5-128.6-472.2
	C488.9,192.1,308.1,238,238,380.1c-56.4,113.2-18.8,263.9,94.1,318.4c85.7,41.7,198.6,11.8,237.2-78c26.1-62,4.2-143.2-56.4-165.6
	c-16.7-6.4-40.8-6.4-57.5,0c-41.8,17.1-58.5,63-56.4,92.9c15.7,63,32.4,44.9,36.6,70.5c-46,6.4-87.8-24.6-104.5-56.6
	s-21.9-65.2-13.6-99.4c12.5-54.5,52.3-94,96.2-112.2c43.9-18.2,93-19.2,136.9-2.1C678,396.1,720.9,548.9,670.7,665.4
	C604.9,818.1,423,868.3,284,800C110.5,715.6,55.1,495.5,138.7,327.8c100.4-202,349.1-265,538.3-163.5
	C898.6,284,967.5,573.5,851.5,791.4c-16.7,31-36.6,59.8-58.5,85.5c-18.8,22.4-38.7,41.7-60.6,59.8c46-26.7,87.8-60.9,123.3-100.4
	L856.8,838.4z"/>
</svg>
